assets/icons/qvision/360.svg

<svg xmlns="http://www.w3.org/2000/svg" height="24" viewBox="0 0 24 24" width="24"><path d="M0 0h24v24H0z" fill="none"/><path d="M12 7C6.48 7 2 9.24 2 12c0 2.24 2.94 4.13 7 4.77V20l4-4-4-4v2.73c-3.15-.56-5-1.9-5-2.73 0-1.06 3.04-3 8-3s8 1.94 8 3c0 .73-1.46 1.89-4 2.53v2.05c3.53-.77 6-2.53 6-4.58 0-2.76-4.48-5-10-5z"/></svg>

<svg width="24" height="24" viewBox="0 0 24 24" fill="none" xmlns="http://www.w3.org/2000/svg">
<g clip-path="url(#clip0_147_5048)">
<path d="M12 7C6.48 7 2 9.24 2 12C2 14.24 4.94 16.13 9 16.77V20L13 16L9 12V14.73C5.85 14.17 4 12.83 4 12C4 10.94 7.04 9 12 9C16.96 9 20 10.94 20 12C20 12.73 18.54 13.89 16 14.53V16.58C19.53 15.81 22 14.05 22 12C22 9.24 17.52 7 12 7Z" fill="#323232"/>
</g>
<defs>
<clipPath id="clip0_147_5048">
<rect width="24" height="24" fill="white"/>
</clipPath>
</defs>
</svg>
